svgs/sharp-solid/abacus.svg

<svg xmlns="http://www.w3.org/2000/svg" viewBox="0 0 576 512"><!--! Font Awesome Pro 6.6.0 by @fontawesome - https://fontawesome.com License - https://fontawesome.com/license (Commercial License) Copyright 2024 Fonticons, Inc. --><path d="M512 96l0 112-64 0 0-32 8 0 24 0 0-48-24 0-8 0 0-32 64 0zm-96 32l-8 0-24 0 0 48 24 0 8 0 0 32-128 0 0-32 8 0 24 0 0-48-24 0-8 0 0-32 128 0 0 32zm-160 0l-8 0-24 0 0 48 24 0 8 0 0 32-96 0 0-32 8 0 24 0 0-48-24 0-8 0 0-32 96 0 0 32zm-128 0l-8 0-24 0 0 48 24 0 8 0 0 32-64 0L64 96l64 0 0 32zM64 416l0-176 64 0 0 24-8 0-24 0 0 48 24 0 8 0 0 24-8 0-24 0 0 48 24 0 8 0 0 32-64 0zm96-32l8 0 24 0 0-48-24 0-8 0 0-24 8 0 24 0 0-48-24 0-8 0 0-24 96 0 0 24-8 0-24 0 0 48 24 0 8 0 0 24-8 0-24 0 0 48 24 0 8 0 0 32-96 0 0-32zm128-72l8 0 24 0 0-48-24 0-8 0 0-24 128 0 0 96-8 0-24 0 0 48 24 0 8 0 0 32-128 0 0-32 8 0 24 0 0-48-24 0-8 0 0-24zm160 72l8 0 24 0 0-48-24 0-8 0 0-96 64 0 0 176-64 0 0-32zM64 32L0 32 0 96 0 416l0 64 64 0 448 0 64 0 0-64 0-320 0-64-64 0L64 32z"/></svg>

<svg xmlns="http://www.w3.org/2000/svg" viewBox="0 0 576 512"><!--! Font Awesome Pro 6.4.2 by @fontawesome - https://fontawesome.com License - https://fontawesome.com/license (Commercial License) Copyright 2023 Fonticons, Inc. --><path d="M512 96V208H448V176h8 24V128H456h-8V96h64zm-96 32h-8H384v48h24 8v32H288V176h8 24V128H296h-8V96H416v32zm-160 0h-8H224v48h24 8v32H160V176h8 24V128H168h-8V96h96v32zm-128 0h-8H96v48h24 8v32H64V96h64v32zM64 416V240h64v24h-8H96v48h24 8v24h-8H96v48h24 8v32H64zm96-32h8 24V336H168h-8V312h8 24V264H168h-8V240h96v24h-8H224v48h24 8v24h-8H224v48h24 8v32H160V384zm128-72h8 24V264H296h-8V240H416v96h-8H384v48h24 8v32H288V384h8 24V336H296h-8V312zm160 72h8 24V336H456h-8V240h64V416H448V384zM64 32H0V96 416v64H64 512h64V416 96 32H512 64z"/></svg>
